docs/logo/light.svg

<svg width="281" height="48" viewBox="0 0 281 48" fill="none" xmlns="http://www.w3.org/2000/svg">
<path d="M39.0472 14.2819L28.1937 5.02972C27.4115 4.36569 26.4086 3.99987 25.3707 4H4.79131C4.22777 4 3.66968 4.10803 3.14903 4.31792C2.62838 4.52781 2.15534 4.83546 1.75685 5.22329C1.35837 5.61112 1.04226 6.07151 0.826596 6.57823C0.610935 7.08495 0.500003 7.62805 0.500003 8.17652V30.5712C0.49924 31.1662 0.629406 31.7545 0.881784 32.2964C1.13416 32.8384 1.50287 33.3214 1.96312 33.7131L12.814 42.9652C13.5991 43.6351 14.6084 44.0031 15.6525 44H36.2087C37.3468 44 38.4383 43.5599 39.2431 42.7767C40.0479 41.9934 40.5 40.9311 40.5 39.8234V17.4288C40.5018 16.8338 40.3731 16.2454 40.1226 15.7027C39.8721 15.1601 39.5054 14.6756 39.0472 14.2819ZM20.5039 31.6813C18.9414 31.6818 17.4139 31.2313 16.1146 30.3867C14.8152 29.5422 13.8024 28.3416 13.2042 26.9368C12.606 25.532 12.4494 23.986 12.7541 22.4945C13.0588 21.0031 13.8111 19.6331 14.9159 18.5578C16.0208 17.4825 17.4284 16.7503 18.9609 16.4537C20.4934 16.1572 22.0818 16.3097 23.5253 16.8918C24.9687 17.474 26.2023 18.4597 27.07 19.7243C27.9378 20.9889 28.4007 22.4756 28.4002 23.9963C28.3999 25.006 28.1951 26.0058 27.7977 26.9385C27.4002 27.8712 26.8179 28.7186 26.0839 29.4323C25.3499 30.146 24.4786 30.7119 23.5198 31.0978C22.5611 31.4837 21.5336 31.6819 20.4961 31.6813H20.5039Z" fill="#54FE6D"/>
<path d="M73.9252 38L71.7164 31.9627H60.1939L57.9851 38H52.8681L63.1021 11.4946H68.845L79.1894 38H73.9252ZM61.7401 27.7292H70.1702L65.9736 16.1331L61.7401 27.7292ZM81.1167 38V11.4946H86.0496V38H81.1167ZM116.295 38L114.086 31.9627H102.563L100.355 38H95.2376L105.472 11.4946H111.214L121.559 38H116.295ZM104.11 27.7292H112.54L108.343 16.1331L104.11 27.7292ZM131.806 45.8044C126.431 45.8044 123.449 43.2643 123.155 39.1412H127.683C127.977 41.35 129.634 42.1967 131.953 42.1967C134.309 42.1967 136.849 41.35 136.849 37.4846V35.2022C135.561 36.9324 133.61 37.9632 130.959 37.9632C125.4 37.9632 122.382 33.7665 122.382 28.1709C122.382 22.6122 125.4 18.4155 130.959 18.4155C133.72 18.4155 135.708 19.5199 136.996 21.3605V18.8572H141.488V37.4846C141.488 43.2274 137.217 45.8044 131.806 45.8044ZM127.094 28.1709C127.094 31.7786 128.64 34.1714 132.027 34.1714C135.377 34.1714 136.923 31.7786 136.923 28.1709C136.923 24.6001 135.377 22.1704 132.027 22.1704C128.64 22.1704 127.094 24.6001 127.094 28.1709ZM153.396 38.4418C147.469 38.4418 143.935 34.1346 143.935 28.4286C143.935 22.7226 147.469 18.4155 153.396 18.4155C159.322 18.4155 162.856 22.5753 162.856 28.7967V29.9011H148.536C148.941 32.883 150.635 34.7973 153.396 34.7973C155.641 34.7973 157.15 33.8401 157.96 32.1467H162.488C161.237 35.9385 157.96 38.4418 153.396 38.4418ZM148.573 26.588H158.181C157.703 23.7902 156.046 22.06 153.396 22.06C150.745 22.06 149.088 23.7902 148.573 26.588ZM177.992 26.4775C177.992 24.1583 176.961 22.4649 174.311 22.4649C172.728 22.4649 170.225 23.3484 169.893 26.6984V38H165.255V18.8572H169.746V21.471C171.071 19.7039 173.059 18.4155 175.783 18.4155C180.201 18.4155 182.594 21.4341 182.594 25.9253V38H177.992V26.4775ZM187.788 12.9672H192.39V18.8572H197.249V22.4281H192.39V32.6253C192.39 33.8769 192.868 34.4291 194.23 34.4291H197.249V38H193.089C189.85 38 187.788 36.9692 187.788 33.1039V22.4281H184.438V18.8572H187.788V12.9672ZM216.996 38.4418C210.37 38.4418 205.842 35.2758 205.695 29.0913H210.591C210.738 33.2511 213.757 34.3923 217.144 34.3923C220.31 34.3923 222.555 33.0671 222.555 30.6006C222.555 28.7231 221.488 27.6924 215.892 26.588C209.45 25.41 206.394 23.238 206.394 18.4523C206.394 14.0715 210.296 11.0529 216.223 11.0529C223.365 11.0529 226.789 14.6237 226.973 19.9248H222.187C222.003 16.6853 220.162 15.1023 216.223 15.1023C213.352 15.1023 211.474 16.354 211.474 18.305C211.474 20.2561 212.321 21.3237 217.696 22.3545C225.537 23.7902 227.635 26.2567 227.635 30.3797C227.635 35.5335 223.218 38.4418 216.996 38.4418ZM230.083 38V11.4946H239.875C248.968 11.4946 253.201 17.3111 253.201 24.7473C253.201 32.1835 248.968 38 239.875 38H230.083ZM235.016 33.6929H239.875C245.655 33.6929 248.048 29.7539 248.048 24.7473C248.048 19.7407 245.655 15.8018 239.875 15.8018H235.016V33.6929ZM255.914 38V11.4946H260.847V24.4528L273.326 11.4946H279.548L268.872 22.244L279.548 38H273.621L265.448 25.7045L260.847 30.3429V38H255.914Z" fill="#181818"/>
</svg>

<svg width="281" height="48" viewBox="0 0 281 48" fill="none" xmlns="http://www.w3.org/2000/svg"><path d="M39.047 14.282 28.194 5.03A4.36 4.36 0 0 0 25.37 4H4.79c-.563 0-1.121.108-1.642.318a4.3 4.3 0 0 0-1.392.905 4.2 4.2 0 0 0-.93 1.355A4.1 4.1 0 0 0 .5 8.177V30.57c0 .595.13 1.183.382 1.725a4.2 4.2 0 0 0 1.081 1.417l10.851 9.252A4.36 4.36 0 0 0 15.653 44h20.556a4.35 4.35 0 0 0 3.034-1.223 4.12 4.12 0 0 0 1.257-2.954V17.43a4.1 4.1 0 0 0-.377-1.726 4.2 4.2 0 0 0-1.076-1.421m-18.543 17.4c-1.563 0-3.09-.45-4.39-1.295a7.74 7.74 0 0 1-2.91-3.45 7.5 7.5 0 0 1-.45-4.443 7.63 7.63 0 0 1 2.162-3.936 7.97 7.97 0 0 1 4.045-2.104 8.1 8.1 0 0 1 4.564.438 7.86 7.86 0 0 1 3.545 2.832 7.51 7.51 0 0 1 .728 7.214 7.7 7.7 0 0 1-1.714 2.494 7.9 7.9 0 0 1-2.564 1.666 8.1 8.1 0 0 1-3.024.583z" fill="#54FE6D"/><path d="m73.925 38-2.209-6.037H60.194L57.985 38h-5.117l10.234-26.505h5.743L79.189 38zM61.74 27.73h8.43l-4.196-11.597zM81.117 38V11.495h4.933V38zm35.178 0-2.209-6.037h-11.523L100.355 38h-5.117l10.234-26.505h5.742L121.559 38zM104.11 27.73h8.43l-4.197-11.597zm27.696 18.074c-5.375 0-8.357-2.54-8.651-6.663h4.528c.294 2.209 1.951 3.056 4.27 3.056 2.356 0 4.896-.847 4.896-4.712v-2.283c-1.288 1.73-3.239 2.761-5.89 2.761-5.559 0-8.577-4.196-8.577-9.792 0-5.559 3.018-9.755 8.577-9.755 2.761 0 4.749 1.104 6.037 2.944v-2.503h4.492v18.628c0 5.742-4.271 8.32-9.682 8.32m-4.712-17.633c0 3.608 1.546 6 4.933 6 3.35 0 4.896-2.392 4.896-6 0-3.57-1.546-6-4.896-6-3.387 0-4.933 2.43-4.933 6m26.302 10.27c-5.927 0-9.461-4.306-9.461-10.012s3.534-10.013 9.461-10.013c5.926 0 9.46 4.16 9.46 10.38v1.105h-14.32c.405 2.982 2.099 4.896 4.86 4.896 2.245 0 3.754-.957 4.564-2.65h4.528c-1.251 3.791-4.528 6.295-9.092 6.295m-4.823-11.853h9.608c-.478-2.798-2.135-4.528-4.785-4.528s-4.308 1.73-4.823 4.528m29.419-.11c0-2.32-1.031-4.013-3.681-4.013-1.583 0-4.086.883-4.418 4.233V38h-4.638V18.857h4.491v2.614c1.325-1.767 3.313-3.055 6.037-3.055 4.418 0 6.811 3.018 6.811 7.51V38h-4.602zm9.796-13.51h4.602v5.89h4.859v3.57h-4.859v10.197c0 1.252.478 1.804 1.84 1.804h3.019V38h-4.16c-3.239 0-5.301-1.03-5.301-4.896V22.428h-3.35v-3.57h3.35zm29.208 25.474c-6.626 0-11.154-3.166-11.301-9.35h4.896c.147 4.16 3.166 5.3 6.553 5.3 3.166 0 5.411-1.325 5.411-3.791 0-1.878-1.067-2.909-6.663-4.013-6.442-1.178-9.498-3.35-9.498-8.136 0-4.38 3.902-7.4 9.829-7.4 7.142 0 10.566 3.572 10.75 8.873h-4.786c-.184-3.24-2.025-4.823-5.964-4.823-2.871 0-4.749 1.252-4.749 3.203s.847 3.019 6.222 4.05c7.841 1.435 9.939 3.902 9.939 8.025 0 5.153-4.417 8.062-10.639 8.062M230.083 38V11.495h9.792c9.093 0 13.326 5.816 13.326 13.252S248.968 38 239.875 38zm4.933-4.307h4.859c5.78 0 8.173-3.94 8.173-8.946s-2.393-8.945-8.173-8.945h-4.859zM255.914 38V11.495h4.933v12.958l12.479-12.958h6.222l-10.676 10.749L279.548 38h-5.927l-8.173-12.295-4.601 4.638V38z" fill="#181818"/></svg>
